src/app/assets/svg/paint.svg

<?xml version="1.0" encoding="UTF-8"?>
<svg width="186px" height="186px" viewBox="0 0 186 186" version="1.1" xmlns="http://www.w3.org/2000/svg" xmlns:xlink="http://www.w3.org/1999/xlink">
    <title>Group 15</title>
    <defs>
        <path d="M0.999,92.5 C0.999,143.586 42.414,185.001 93.5,185.001 L93.5,185.001 C144.586,185.001 186,143.586 186,92.5 L186,92.5 C186,41.415 144.586,0 93.5,0 L93.5,0 C42.414,0 0.999,41.415 0.999,92.5 L0.999,92.5 Z" id="path-1"></path>
    </defs>
    <g id="Page-1" stroke="none" stroke-width="1" fill="none" fill-rule="evenodd">
        <g id="Blue-Sky-Product-Page" transform="translate(-992.000000, -4029.000000)">
            <g id="Group-15" transform="translate(992.000000, 4029.000000)">
                <g id="Group-3">
                    <mask id="mask-2" fill="white">
                        <use xlink:href="#path-1"></use>
                    </mask>
                    <g id="Clip-2"></g>
                    <polygon id="Fill-1" fill="#D7D8D8" mask="url(#mask-2)" points="-4 190 191 190 191 -5 -4 -5"></polygon>
                </g>
                <path d="M93.4997,185.0001 L93.4997,185.0001 C42.4137,185.0001 0.9997,143.5861 0.9997,92.5001 C0.9997,41.4131 42.4137,0.0001 93.4997,0.0001 C144.5867,0.0001 185.9997,41.4131 185.9997,92.5001 C185.9997,143.5861 144.5867,185.0001 93.4997,185.0001" id="Fill-4" fill="#4686C6"></path>
                <path d="M185.9997,92.5001 L185.9997,92.5001 C185.9997,89.8751 185.8847,87.2761 185.6707,84.7071 C168.6177,67.6431 141.2137,40.2271 141.1077,40.1561 C140.7497,39.6201 140.0507,39.3321 139.3777,39.6021 C134.9857,41.3571 125.5427,45.4071 122.9437,48.7281 C120.7397,51.5441 120.3317,54.6541 121.3097,57.2931 C121.2147,57.3061 121.1217,57.3121 121.0257,57.3281 C120.4697,57.4241 119.9197,57.5821 119.3867,57.7971 C118.3187,58.2261 117.3157,58.8791 116.4477,59.7121 C116.2307,59.9201 116.0227,60.1391 115.8237,60.3691 C115.7767,60.4231 115.7357,60.4831 115.6897,60.5381 C115.0047,59.9051 114.3157,59.3001 113.6257,58.7361 C99.3807,47.1011 84.5927,44.7091 80.8957,54.4951 C79.1347,59.1541 85.3537,64.1731 79.2647,70.4801 C73.1747,76.7871 65.7847,69.3081 56.6457,72.8721 C47.6717,76.3731 37.5087,92.8801 56.7547,113.2151 C57.2757,113.7661 57.8107,114.3021 58.3537,114.8261 C58.4877,114.9591 69.0117,125.4901 69.1037,125.5791 L66.9787,128.5481 C65.7407,130.2771 65.8557,132.4831 67.2097,133.6371 C67.2787,133.7241 95.3827,161.8231 115.8417,182.2771 C156.1337,172.2821 185.9997,135.8821 185.9997,92.5001" id="Fill-6" fill="#004B75"></path>
                <path d="M89.4557,56.8487 C92.0977,54.2077 97.1437,54.9727 100.7287,58.5577 C104.3127,62.1417 105.0787,67.1897 102.4367,69.8307 C99.7957,72.4717 94.7487,71.7067 91.1637,68.1217 C87.5787,64.5377 86.8137,59.4907 89.4557,56.8487 M56.7547,113.2147 C76.0017,133.5487 110.3627,135.9417 126.1307,110.6047 C138.4307,90.8397 126.1217,68.9437 113.6257,58.7367 C99.3807,47.1017 84.5927,44.7087 80.8947,54.4947 C79.1347,59.1547 85.3527,64.1727 79.2647,70.4807 C73.1747,76.7867 65.7847,69.3077 56.6457,72.8717 C47.6717,76.3727 37.5087,92.8797 56.7547,113.2147" id="Fill-8" fill="#F8F8F9"></path>
                <path d="M72.6901,87.0216 C72.6901,91.5006 69.0591,95.1306 64.5811,95.1306 C60.1011,95.1306 56.4701,91.5006 56.4701,87.0216 C56.4701,82.5426 60.1011,78.9116 64.5811,78.9116 C69.0591,78.9116 72.6901,82.5426 72.6901,87.0216" id="Fill-10" fill="#B1D7E4"></path>
                <path d="M70.1208,85.7364 C70.1208,90.2154 66.4898,93.8454 62.0118,93.8454 C57.5318,93.8454 53.9008,90.2154 53.9008,85.7364 C53.9008,81.2574 57.5318,77.6274 62.0118,77.6274 C66.4898,77.6274 70.1208,81.2574 70.1208,85.7364" id="Fill-12" fill="#FBB21F"></path>
                <path d="M66.3093,78.8683 C67.0923,80.1153 67.5513,81.5863 67.5513,83.1673 C67.5513,87.6453 63.9203,91.2763 59.4423,91.2763 C57.8613,91.2763 56.3903,90.8173 55.1433,90.0353 C56.5773,92.3213 59.1133,93.8463 62.0113,93.8463 C66.4903,93.8463 70.1213,90.2153 70.1213,85.7363 C70.1213,82.8383 68.5963,80.3033 66.3093,78.8683" id="Fill-14" fill="#4686C6"></path>
                <path d="M79.5153,107.5763 C79.5153,112.0553 75.8843,115.6863 71.4063,115.6863 C66.9263,115.6863 63.2953,112.0553 63.2953,107.5763 C63.2953,103.0973 66.9263,99.4673 71.4063,99.4673 C75.8843,99.4673 79.5153,103.0973 79.5153,107.5763" id="Fill-16" fill="#B1D7E4"></path>
                <path d="M76.946,106.2921 C76.946,110.7711 73.315,114.4011 68.837,114.4011 C64.357,114.4011 60.726,110.7711 60.726,106.2921 C60.726,101.8131 64.357,98.1821 68.837,98.1821 C73.315,98.1821 76.946,101.8131 76.946,106.2921" id="Fill-18" fill="#FBB21F"></path>
                <path d="M73.1345,99.4239 C73.9165,100.6709 74.3765,102.1419 74.3765,103.7229 C74.3765,108.2009 70.7455,111.8319 66.2665,111.8319 C64.6865,111.8319 63.2155,111.3729 61.9685,110.5909 C63.4025,112.8769 65.9385,114.4019 68.8365,114.4019 C73.3155,114.4019 76.9465,110.7709 76.9465,106.2919 C76.9465,103.3939 75.4205,100.8589 73.1345,99.4239" id="Fill-20" fill="#4686C6"></path>
                <path d="M79.6911,127.1612 L126.5451,74.8762 C124.2571,70.3982 121.3241,66.3542 118.1681,62.9942 C117.4901,63.5232 116.8651,64.1402 116.3321,64.8492 L71.7501,124.1352 C74.3261,125.3752 76.9861,126.3852 79.6911,127.1612" id="Fill-22" fill="#B1D7E4"></path>
                <path d="M67.2956,133.7208 L67.2956,133.7208 C65.8526,132.5908 65.7136,130.3168 66.9796,128.5478 L115.2566,61.0888 C116.6876,59.0888 118.7996,57.7128 121.0256,57.3278 C124.9756,56.6458 128.2566,59.2138 128.5426,63.2118 C128.7046,65.4648 127.8756,67.8468 126.2776,69.7158 L72.3926,132.7838 C70.9796,134.4388 68.7376,134.8498 67.2956,133.7208" id="Fill-24" fill="#68CBE4"></path>
                <path d="M128.5427,63.212 C128.3997,61.213 127.5077,59.571 126.1577,58.515 C126.6537,58.902 126.6907,59.876 126.1647,61.35 C125.5707,63.013 124.3357,65.075 122.7907,66.986 L70.6797,131.443 C69.3137,133.134 67.8247,134.135 67.2957,133.721 C68.7377,134.85 70.9797,134.439 72.3927,132.784 L126.2777,69.716 C127.8757,67.847 128.7047,65.465 128.5427,63.212" id="Fill-26" fill="#39687A"></path>
                <path d="M121.0261,57.3282 C118.7991,57.7132 116.6871,59.0892 115.2561,61.0892 L105.2111,75.1262 C106.5421,76.5322 108.1061,77.9632 109.8611,79.3362 C111.6161,80.7102 113.3801,81.8852 115.0651,82.8392 L126.2781,69.7162 C127.8761,67.8472 128.7051,65.4652 128.5431,63.2122 C128.2561,59.2142 124.9751,56.6452 121.0261,57.3282" id="Fill-28" fill="#5993AE"></path>
                <path d="M121.9382,58.0421 C120.0012,58.6531 118.0442,60.1511 116.5932,62.1361 L106.2802,76.1711 C107.0852,76.9601 107.9562,77.7431 108.8932,78.5211 L119.5832,64.4751 C121.0792,62.5261 122.6872,60.7561 123.9762,59.6381 C125.1202,58.6461 125.8682,58.2881 126.1582,58.5151 C125.1362,57.7151 123.6562,57.5001 121.9382,58.0421" id="Fill-30" fill="#B1D7E4"></path>
                <path d="M126.1647,61.3497 C125.5707,63.0127 124.3357,65.0757 122.7907,66.9867 L111.7177,80.6837 C112.8497,81.4807 113.9757,82.2217 115.0647,82.8387 L126.2777,69.7157 C127.8757,67.8467 128.7047,65.4647 128.5427,63.2117 C128.4717,62.2117 128.2127,61.3017 127.8027,60.5097 C127.3937,59.7167 126.8327,59.0427 126.1577,58.5147 C126.6537,58.9027 126.6907,59.8757 126.1647,61.3497" id="Fill-32" fill="#43778C"></path>
                <path d="M136.4304,59.2833 C133.0084,63.6553 127.8564,64.0173 124.1324,61.1023 C120.4084,58.1883 119.5224,53.0993 122.9444,48.7273 C125.5424,45.4073 134.9864,41.3573 139.3774,39.6013 C140.3974,39.1933 141.4924,40.0513 141.3414,41.1393 C140.6924,45.8243 139.0294,55.9633 136.4304,59.2833" id="Fill-34" fill="#FBB21F"></path>
                <path d="M134.0222,55.9464 C129.7642,59.5094 124.6502,58.7914 121.6142,55.1654 C121.3172,54.8094 121.0592,54.4354 120.8252,54.0534 C120.6702,56.7724 121.8762,59.3374 124.1322,61.1024 C127.8562,64.0174 133.0082,63.6554 136.4302,59.2834 C138.6652,56.4284 140.2062,48.5414 141.0062,43.4054 C139.1262,48.0884 136.4342,53.9264 134.0222,55.9464" id="Fill-36" fill="#5D666C"></path>
                <path d="M113.694,115.4991 C113.694,119.9781 110.063,123.6091 105.585,123.6091 C101.106,123.6091 97.474,119.9781 97.474,115.4991 C97.474,111.0201 101.106,107.3901 105.585,107.3901 C110.063,107.3901 113.694,111.0201 113.694,115.4991" id="Fill-38" fill="#B1D7E4"></path>
                <path d="M111.1247,114.215 C111.1247,118.694 107.4937,122.324 103.0157,122.324 C98.5357,122.324 94.9047,118.694 94.9047,114.215 C94.9047,109.736 98.5357,106.105 103.0157,106.105 C107.4937,106.105 111.1247,109.736 111.1247,114.215" id="Fill-40" fill="#FBB21F"></path>
                <path d="M107.3141,107.3468 C108.0961,108.5938 108.5551,110.0648 108.5551,111.6448 C108.5551,116.1238 104.9241,119.7548 100.4461,119.7548 C98.8651,119.7548 97.3941,119.2948 96.1471,118.5128 C97.5821,120.7988 100.1171,122.3248 103.0151,122.3248 C107.4941,122.3248 111.1251,118.6938 111.1251,114.2148 C111.1251,111.3168 109.6001,108.7808 107.3141,107.3468" id="Fill-42" fill="#4686C6"></path>
                <path d="M129.5124,97.17 C129.5124,101.649 125.8814,105.279 121.4034,105.279 C116.9234,105.279 113.2924,101.649 113.2924,97.17 C113.2924,92.691 116.9234,89.06 121.4034,89.06 C125.8814,89.06 129.5124,92.691 129.5124,97.17" id="Fill-44" fill="#B1D7E4"></path>
                <path d="M126.9431,95.8849 C126.9431,100.3639 123.3121,103.9949 118.8341,103.9949 C114.3541,103.9949 110.7231,100.3639 110.7231,95.8849 C110.7231,91.4059 114.3541,87.7759 118.8341,87.7759 C123.3121,87.7759 126.9431,91.4059 126.9431,95.8849" id="Fill-46" fill="#FBB21F"></path>
                <path d="M123.1315,89.0167 C123.9135,90.2647 124.3735,91.7347 124.3735,93.3157 C124.3735,97.7947 120.7425,101.4257 116.2635,101.4257 C114.6835,101.4257 113.2125,100.9657 111.9655,100.1837 C113.3995,102.4697 115.9355,103.9957 118.8335,103.9957 C123.3125,103.9957 126.9435,100.3647 126.9435,95.8847 C126.9435,92.9877 125.4185,90.4517 123.1315,89.0167" id="Fill-48" fill="#4686C6"></path>
            </g>
        </g>
    </g>
</svg>

<svg xmlns="http://www.w3.org/2000/svg" xmlns:xlink="http://www.w3.org/1999/xlink" width="186" height="186"><defs/><defs><path id="a" d="M.999 92.5c0 51.086 41.415 92.501 92.501 92.501 51.086 0 92.5-41.415 92.5-92.501C186 41.415 144.586 0 93.5 0S.999 41.415.999 92.5z"/></defs><g fill="none" fill-rule="evenodd"><g><mask id="b" fill="#fff"><use xlink:href="#a"/></mask><path fill="#D7D8D8" d="M-4 190h195V-5H-4z" mask="url(#b)"/></g><path fill="#4686C6" d="M93.5 185C42.414 185 1 143.586 1 92.5 1 41.413 42.414 0 93.5 0 144.587 0 186 41.413 186 92.5c0 51.086-41.413 92.5-92.5 92.5"/><path fill="#004B75" d="M186 92.5c0-2.625-.115-5.224-.33-7.793-17.052-17.064-44.456-44.48-44.562-44.55-.358-.537-1.057-.825-1.73-.555-4.392 1.755-13.835 5.805-16.434 9.126-2.204 2.816-2.612 5.926-1.634 8.565-.095.013-.188.02-.284.035a8.046 8.046 0 00-1.64.47 9.245 9.245 0 00-2.938 1.914 9.71 9.71 0 00-.624.657c-.047.054-.088.114-.134.17a45.284 45.284 0 00-2.064-1.803c-14.245-11.635-29.033-14.027-32.73-4.24-1.761 4.658 4.458 9.677-1.631 15.984-6.09 6.307-13.48-1.172-22.62 2.392-8.973 3.501-19.136 20.008.11 40.343a49.592 49.592 0 001.599 1.611c.134.133 10.658 10.664 10.75 10.753l-2.125 2.97c-1.238 1.728-1.123 3.934.23 5.088.07.087 28.174 28.186 48.633 48.64C156.134 172.282 186 135.882 186 92.5"/><path fill="#F8F8F9" d="M89.456 56.849c2.642-2.641 7.688-1.876 11.273 1.709 3.584 3.584 4.35 8.632 1.708 11.273-2.641 2.64-7.688 1.876-11.273-1.71-3.585-3.583-4.35-8.63-1.708-11.272m-32.701 56.366c19.247 20.334 53.608 22.727 69.376-2.61 12.3-19.765-.01-41.661-12.505-51.868-14.245-11.635-29.033-14.028-32.731-4.242-1.76 4.66 4.458 9.678-1.63 15.986-6.09 6.306-13.48-1.173-22.62 2.39-8.973 3.502-19.136 20.009.11 40.344"/><path fill="#B1D7E4" d="M72.69 87.022a8.109 8.109 0 01-8.109 8.109 8.11 8.11 0 110-16.22 8.11 8.11 0 018.11 8.11"/><path fill="#FBB21F" d="M70.12 85.736a8.109 8.109 0 01-8.108 8.11 8.11 8.11 0 110-16.219 8.109 8.109 0 018.109 8.11"/><path fill="#4686C6" d="M66.31 78.868a8.056 8.056 0 011.241 4.3 8.11 8.11 0 01-8.109 8.108 8.064 8.064 0 01-4.299-1.24 8.097 8.097 0 006.868 3.81 8.11 8.11 0 008.11-8.11c0-2.898-1.525-5.433-3.812-6.868"/><path fill="#B1D7E4" d="M79.515 107.576a8.11 8.11 0 11-16.22 0 8.11 8.11 0 0116.22 0"/><path fill="#FBB21F" d="M76.946 106.292a8.109 8.109 0 01-8.109 8.11 8.11 8.11 0 110-16.22 8.11 8.11 0 018.109 8.11"/><path fill="#4686C6" d="M73.135 99.424a8.065 8.065 0 011.241 4.299 8.11 8.11 0 01-8.11 8.109 8.063 8.063 0 01-4.298-1.241 8.097 8.097 0 006.868 3.81 8.11 8.11 0 008.11-8.11c0-2.897-1.525-5.432-3.811-6.867"/><path fill="#B1D7E4" d="M79.691 127.161l46.854-52.285a52.277 52.277 0 00-8.377-11.882 9.929 9.929 0 00-1.836 1.855L71.75 124.135a50.29 50.29 0 007.941 3.026"/><path fill="#68CBE4" d="M67.296 133.72c-1.443-1.13-1.582-3.403-.316-5.172l48.277-67.46c1.43-2 3.543-3.375 5.769-3.76 3.95-.682 7.23 1.886 7.517 5.884.162 2.253-.667 4.635-2.265 6.504l-53.885 63.068c-1.413 1.655-3.655 2.066-5.097.937"/><path fill="#39687A" d="M128.543 63.212c-.143-1.999-1.035-3.641-2.385-4.697.496.387.533 1.361.007 2.835-.594 1.663-1.83 3.725-3.374 5.636L70.68 131.443c-1.366 1.691-2.855 2.692-3.384 2.278 1.442 1.129 3.684.718 5.097-.937l53.885-63.068c1.598-1.869 2.427-4.251 2.265-6.504"/><path fill="#5993AE" d="M121.026 57.328c-2.227.385-4.339 1.761-5.77 3.761l-10.045 14.037a42.446 42.446 0 004.65 4.21 42.413 42.413 0 005.204 3.503l11.213-13.123c1.598-1.869 2.427-4.25 2.265-6.504-.287-3.998-3.568-6.567-7.517-5.884"/><path fill="#B1D7E4" d="M121.938 58.042c-1.937.611-3.894 2.11-5.345 4.094L106.28 76.171a42.686 42.686 0 002.613 2.35l10.69-14.046c1.496-1.949 3.104-3.719 4.393-4.837 1.144-.992 1.892-1.35 2.182-1.123-1.022-.8-2.502-1.015-4.22-.473"/><path fill="#43778C" d="M126.165 61.35c-.594 1.663-1.83 3.726-3.374 5.637l-11.073 13.697c1.132.797 2.258 1.538 3.347 2.155l11.213-13.123c1.598-1.87 2.427-4.251 2.265-6.504-.071-1-.33-1.91-.74-2.702a6.031 6.031 0 00-1.645-1.995c.496.388.533 1.36.007 2.835"/><path fill="#FBB21F" d="M136.43 59.283c-3.422 4.372-8.574 4.734-12.298 1.82-3.724-2.915-4.61-8.004-1.188-12.376 2.598-3.32 12.042-7.37 16.433-9.126 1.02-.408 2.115.45 1.964 1.538-.649 4.685-2.312 14.824-4.91 18.144"/><path fill="#5D666C" d="M134.022 55.946c-4.258 3.563-9.372 2.845-12.408-.78a9.34 9.34 0 01-.789-1.113c-.155 2.72 1.051 5.284 3.307 7.05 3.724 2.914 8.876 2.552 12.298-1.82 2.235-2.855 3.776-10.742 4.576-15.878-1.88 4.683-4.572 10.521-6.984 12.541"/><path fill="#B1D7E4" d="M113.694 115.5a8.11 8.11 0 11-16.22 0 8.11 8.11 0 0116.22 0"/><path fill="#FBB21F" d="M111.125 114.215a8.109 8.109 0 01-8.11 8.109 8.11 8.11 0 110-16.219 8.11 8.11 0 018.11 8.11"/><path fill="#4686C6" d="M107.314 107.347a8.063 8.063 0 011.241 4.298 8.11 8.11 0 01-8.109 8.11 8.065 8.065 0 01-4.299-1.242c1.435 2.286 3.97 3.812 6.868 3.812a8.11 8.11 0 008.11-8.11 8.097 8.097 0 00-3.81-6.868"/><path fill="#B1D7E4" d="M129.512 97.17a8.109 8.109 0 01-8.109 8.109 8.11 8.11 0 110-16.219 8.11 8.11 0 018.11 8.11"/><path fill="#FBB21F" d="M126.943 95.885a8.11 8.11 0 11-16.22 0 8.11 8.11 0 0116.22 0"/><path fill="#4686C6" d="M123.132 89.017a8.067 8.067 0 011.242 4.299 8.11 8.11 0 01-8.11 8.11c-1.58 0-3.051-.46-4.298-1.242a8.098 8.098 0 006.868 3.812 8.11 8.11 0 008.11-8.111 8.098 8.098 0 00-3.813-6.868"/></g></svg>
